X: 461
T: Bursa`nın Ufak Tefek Taşları
C: (Anonim)
O: Turkey
F: http://compmusic.upf.edu/node/140
N: huseyni--turku--aksak--bursanin_ufak--bursa
N: makam= huseyni
N: form= turku
N: usul= aksak = 9/8
M: 9/8
L: 1/16
K: C _2/4B ^3/4f  
Q: 1/4=180
%%MIDI tuningsystem comma53
d4 c2d2 e2a2 e4 d2 | d4c2 d2e2 a2e4d2  | \
w:  ARANAĞME  |  ARANAĞME  | 
d4 c2d2 e2a2 e4 d2 | 
w:  ARANAĞME  | 
d4c2 d2e2 a2e4d2  | e2d2 e2c2 d4 d6 | \
w:  ARANAĞME  |   | 
c2 d2d2 d2d2 e2c4B2  | 
w:   | 
c2d2 d2d2 d2e2 c4 B2 | c2 c2c2 B2c2 d2B4A2  | \
w:   |   | 
A16 z2 | d4c2 d2e2 d2e6  | 
w:   |  Bur sa *  nın   | 
e2e2 e2f2 g2=f2 e4 d2 | d4c2 d2e2 d2e6  | \
w:  u fak  te fek  taş *  la rı    |  Bur sa *  nın   | 
e2e2 e2f2 g2=f2 e4 d2 | 
w:  u fak  te fek  taş *  la rı    | 
d2 d2c2 B2A4B6  | c2c2 c2c2 B2c2 d4 e2 | \
w:  Ke man_ ol *  muş   |  o  yâ ri min  saç *  la rı    | 
d2 d2c2 B2A4B6  | c2c2 c2c2 B2c2 d2B2 A2 | 
w:  Ke man_ ol *  muş   |  o  yâ ri min  saç *  la  | 
A16z2  | d2d2 c2d2 e2d2 e6 | e2 e2e2 f2g2 =f2e4d2  | \
w:  rı    |  Bir_ o muz *  dan   |  bir_ o mu za  saç *  la rı    | 
d2d2 c2d2 e2d2 e6 | 
w:  Bir_ o muz *  dan   | 
e2 e2e2 f2g2 =f2e4d2  | d4 c2B2 A4 B6 | \
w:  bir_ o mu za  saç *  la rı    |  A  be *  nim   | 
c4c4B2 c2d4e2  | d4 c2B2 A4 B6 | 
w:  es mer  gü *  ze lim    |  Yâ rim *  le   | 
c4c2 c2B2 c2d2 B2A2  | A16 z2 | d4c2 B2A4B6  | \
w:  kol ko la  ge *  ze  |  lim    |  A  be *  nim   | 
c4 c4 B2c2 d4 e2 | 
w:  es mer  gü *  ze lim    | 
d4c2 B2A4B6  | c4 c2c2 B2c2 d2B2 A2 | \
w:  Yâ rim *  le   |  kol ko la  ge *  ze  | 
A16z2  | d4 c2d2 e2a2 e4 d2 | 
w:  lim    |  ARANAĞME  | 
d4c2 d2e2 a2e4d2  | d4 c2d2 e2a2 e4 d2 | \
w:  ARANAĞME  |  ARANAĞME  | 
d4c2 d2e2 a2e4d2  | 
w:  ARANAĞME  | 
e2d2 e2c2 d4 d6 | c2 d2d2 d2d2 e2c4B2  | \
w:   |   | 
c2d2 d2d2 d2e2 c4 B2 | 
w:   | 
c2 c2c2 B2c2 d2B4A2  | A16 z2 | d4c2 d2e2 d2e6  | \
w:   |   |  Bur sa *  nın   | 
e2e2 e2f2 g2=f2 e4 d2 | 
w:  u fak  te fek  taş *  la rı    | 
d4c2 d2e2 d2e6  | e2e2 e2f2 g2=f2 e4 d2 | \
w:  Bur sa *  nın   |  u fak  te fek  taş *  la rı    | 
d2 d2c2 B2A4B6  | c2c2 c2c2 B2c2 d4 e2 | 
w:  Ke man_ ol *  muş   |  o  yâ ri min  saç *  la rı    | 
d2 d2c2 B2A4B6  | c2c2 c2c2 B2c2 d2B2 A2 | \
w:  Ke man_ ol *  muş   |  o  yâ ri min  saç *  la  | 
A16z2  | d2d2 c2d2 e2d2 e6 | 
w:  rı    |  Bir_ o muz *  dan   | 
e2 e2e2 f2g2 =f2e4d2  | d2d2 c2d2 e2d2 e6 | \
w:  bir_ o mu za  saç *  la rı    |  Bir_ o muz *  dan   | 
e2 e2e2 f2g2 =f2e4d2  | 
w:  bir_ o mu za  saç *  la rı    | 
d4 c2B2 A4 B6 | c4c4B2 c2d4e2  | d4 c2B2 A4 B6 | \
w:  A  be *  nim   |  es mer  gü *  ze lim    |  Yâ rim *  le   | 
c4c2 c2B2 c2d2 B2A2  | 
w:  kol ko la  ge *  ze  | 
A16 z2 | d4c2 B2A4B6  | c4 c4 B2c2 d4 e2 | \
w:  lim    |  A  be *  nim   |  es mer  gü *  ze lim    | 
d4c2 B2A4B6  | c4 c2c2 B2c2 d2B2 A2 | 
w:  Yâ rim *  le   |  kol ko la  ge *  ze  | 
A16z2  | |


